X:1
T:We Will March Through the Valley
M:4/4
L:1/8
K:Bb
 FA| B2 B3/2 c/2B/2-G/2 FA B| c3- d- c2 Bc| d2 d3/2 e/2d/2-c/2 BB d|\
 c3- d- c2|B-c| d2 d3/2 e/2d/2-c/2 BB d| c3- dc-F AB| c2 d3/2 c/2 BF Ac|\
 B4 z2||
